X: 8756
T: Cucanandy
R: slip jig
M: 9/8
K: Eminor
|:B>cB B2 A G2 A|Bdd d2 B d2 g|B>cB B2 A G3|B2 e e2 ^d e3:|
def gag fed|B2 d d2 B d2 g|d2 f g2 g fed|B2 e e2 ^d e3|
dd/e/f gb/a/g fed|B2 d d2 B d3|e2 d B2 A G2 A|Bee e2 ^d e3||

